static/logos/raycast-glyph-color.svg

<svg width="50" height="50" viewBox="0 0 50 50" fill="none" xmlns="http://www.w3.org/2000/svg">
<g clip-path="url(#clip0_1_1351)">
<path fill-rule="evenodd" clip-rule="evenodd" d="M12.4489 32.2538V37.449L0 25L2.59933 22.4008L12.4489 32.2538ZM17.6443 37.449H12.4489L24.8979 49.8979L27.4971 47.2985L17.6443 37.449ZM47.1898 27.5994L49.789 25L24.8912 0.102234L22.2985 2.70821L32.1481 12.5578H26.1958L19.3207 5.69596L16.7214 8.29529L20.9971 12.5711H18.0094V31.8952H37.3335V28.9073L41.6094 33.1831L44.2085 30.5838L37.3335 23.7088V17.7565L47.1898 27.5994ZM13.7469 11.2631L11.141 13.8624L13.9295 16.651L16.5289 14.0517L13.7469 11.2631ZM35.8562 33.3725L33.2569 35.9717L36.0454 38.7602L38.6448 36.161L35.8562 33.3725ZM8.16981 16.8369L5.57048 19.4363L12.4456 26.3115V21.1127L8.16981 16.8369ZM28.7919 37.459H23.5965L30.4717 44.3342L33.071 41.7348L28.7919 37.459Z" fill="#FF5656"/>
</g>
<defs>
<clipPath id="clip0_1_1351">
<rect width="50" height="50" fill="white"/>
</clipPath>
</defs>
</svg>

<svg xmlns="http://www.w3.org/2000/svg" width="64" height="64" fill="none" viewBox="0 0 50 50"><g clip-path="url(#a)"><path fill="#FF5656" fill-rule="evenodd" d="M12.449 32.254v5.195L0 25l2.6-2.6 9.849 9.854Zm5.195 5.195H12.45l12.449 12.449 2.6-2.6-9.854-9.849Zm29.546-9.85L49.789 25 24.891.102 22.3 2.708l9.85 9.85h-5.953L19.32 5.696l-2.6 2.6 4.276 4.275H18.01v19.324h19.325v-2.988l4.275 4.276 2.6-2.6-6.876-6.874v-5.953L47.19 27.6ZM13.747 11.263l-2.606 2.6 2.789 2.788 2.599-2.6-2.782-2.788Zm22.11 22.11-2.6 2.599 2.788 2.788 2.6-2.599-2.789-2.788ZM8.17 16.837l-2.6 2.6 6.876 6.874v-5.198L8.17 16.837Zm20.622 20.622h-5.196l6.876 6.875 2.599-2.6-4.28-4.275Z" clip-rule="evenodd"/></g><defs><clipPath id="a"><path fill="#fff" d="M0 0h50v50H0z"/></clipPath></defs></svg>
